packages/icons/svg/Outline/phone-off.svg

<svg width="24" height="24" viewBox="0 0 24 24" fill="none" xmlns="http://www.w3.org/2000/svg">
<g id="Icon/Outline/phone-off">
<path id="Mask" fill-rule="evenodd" clip-rule="evenodd" d="M6.69824 14.6299C5.01224 12.3889 4.00024 9.61291 4.00024 6.59991C4.00024 5.16591 5.16624 3.99991 6.59924 3.99991C6.70924 3.99991 6.81724 4.00691 6.92724 4.02191L7.98824 8.64191L7.81804 8.73071L7.81765 8.73091C7.69274 8.79603 7.56495 8.86264 7.44324 8.92691C6.57224 9.38191 5.94324 9.71091 6.26524 10.5139C6.64124 11.5839 7.18624 12.5759 7.84424 13.4839L9.27324 12.0549C8.97124 11.6089 8.70124 11.1389 8.47424 10.6449C9.71424 9.99491 9.71824 9.99191 9.85424 9.84991C10.0882 9.60691 10.1822 9.26191 10.1072 8.93391L8.73824 2.96991C8.66124 2.63391 8.41724 2.36091 8.09224 2.24891C7.85424 2.16591 7.60824 2.10491 7.36524 2.06591C7.11624 2.02291 6.86024 1.99991 6.59924 1.99991C4.06324 1.99991 2.00024 4.06391 2.00024 6.59991C2.00024 10.1659 3.22924 13.4429 5.27124 16.0569L6.69824 14.6299ZM19.7393 4.26071C19.3923 3.91271 18.8303 3.91271 18.4823 4.26071L4.26034 18.4827C4.08734 18.6567 4.00034 18.8837 4.00034 19.1117C4.00034 19.3387 4.08734 19.5667 4.26034 19.7397C4.60734 20.0867 5.17034 20.0867 5.51734 19.7397L19.7393 5.51771C20.0873 5.16971 20.0873 4.60771 19.7393 4.26071ZM21.7505 15.9087C21.8325 16.1437 21.8955 16.3887 21.9355 16.6387C21.9775 16.8867 21.9995 17.1417 21.9995 17.4007C21.9995 19.9367 19.9365 21.9997 17.4005 21.9997C13.8335 21.9997 10.5565 20.7707 7.94354 18.7287L9.37054 17.3017C11.6115 18.9877 14.3865 19.9997 17.4005 19.9997C18.8335 19.9997 19.9995 18.8337 19.9995 17.4007C19.9995 17.2887 19.9935 17.1797 19.9785 17.0727L15.3585 16.0117L15.0735 16.5567L15.0689 16.5657C14.6163 17.431 14.2886 18.0575 13.4465 17.7197C12.3935 17.3507 11.4135 16.8107 10.5125 16.1587L11.9425 14.7287C12.3895 15.0327 12.8605 15.3027 13.3545 15.5277C14.0036 14.2865 14.0075 14.2827 14.1499 14.1463L14.1505 14.1457C14.3935 13.9117 14.7375 13.8197 15.0665 13.8927L21.0305 15.2617C21.3665 15.3387 21.6385 15.5827 21.7505 15.9087Z" fill="#000000"/>
</g>
</svg>

<svg fill="none" height="24" viewBox="0 0 24 24" width="24" xmlns="http://www.w3.org/2000/svg"><path clip-rule="evenodd" d="m6.69818 14.63c-1.686-2.241-2.698-5.017-2.698-8.03 0-1.434 1.166-2.6 2.599-2.6.11 0 .218.007.328.022l1.061 4.62-.1702.0888-.00039.0002c-.12491.06512-.2527.13173-.37441.196-.871.455-1.5.784-1.178 1.587.376 1.07.921 2.062 1.579 2.97l1.429-1.429c-.302-.446-.572-.916-.799-1.41 1.24-.65 1.244-.653 1.38-.795.23402-.243.32802-.588.25302-.916l-1.36902-5.964c-.077-.336-.321-.609-.646-.721-.238-.083-.484-.144-.727-.183-.249-.043-.505-.066-.766-.066-2.536 0-4.599 2.064-4.599 4.6 0 3.566 1.229 6.843 3.271 9.457zm13.04112-10.36933c-.347-.348-.909-.348-1.257 0l-14.222 14.22203c-.173.174-.26.401-.26.629 0 .227.087.455.26.628.347.347.91.347 1.257 0l14.222-14.22203c.348-.348.348-.91 0-1.257zm2.0112 11.64823c.0819.235.1449.48.1849.73.042.248.064.503.064.762 0 2.536-2.063 4.599-4.599 4.599-3.5669 0-6.8439-1.229-9.45695-3.271l1.427-1.427c2.24105 1.686 5.01595 2.698 8.02995 2.698 1.4331 0 2.599-1.166 2.599-2.599 0-.112-.0059-.221-.021-.328l-4.62-1.061-.2849.545-.0047.0089c-.4526.8654-.7802 1.4919-1.6223 1.1541-1.0531-.369-2.033-.909-2.934-1.561l1.43-1.43c.447.304.918.574 1.412.799.649-1.2413.6529-1.245.7953-1.3814l.0006-.0006c.243-.234.587-.326.9161-.253l5.9639 1.369c.336.077.6081.321.7201.647z" fill="#6b7280" fill-rule="evenodd"/></svg>
